X:1
T:Spiritus Christi
T:H. Walford Davies
T:Spiritus Christi
C:H. Walford Davies
%%score { ( 1 2 ) | ( 3 4 ) }
L:1/8
Q:1/4=184
M:4/2
K:D
V:1 treble nm="Piano" snm="Pno."
V:2 treble 
V:3 bass 
V:4 bass 
V:1
 A6 A2 | B4 A4 d4 c4 | B8 A8 | (F2 G2) A4 G4 A4 | F8 A6 A2 | B4 A4 d4 c4 | B8 A8 | %7
 (B2 A2) (G2 F2) E4 (F2 G2) | F8 | G8 F8 |] %10
V:2
 D6 D2 | D4 D4 (D2 E2) F4 | (B,4 C4) D8 | D4 D4 D4 C4 | D8 D6 D2 | D4 D4 (D2 E2) F4 | B,4 C4 D8 | %7
 D4 D4 D4 C4 | D8 | D8 D8 |] %10
V:3
 F,6 F,2 | G,4 F,4 B,4 A,4 | G,8 F,8 | A,4 A,4 B,4 A,4 | A,8 F,6 F,2 | G,4 F,4 B,4 A,4 | G,8 F,8 | %7
 (G,2 F,2) (E,2 D,2) A,4 A,4 | A,8 | B,8 A,8 |] %10
V:4
 x8 | x16 | x16 | (D,2 E,2) F,4 E,4 A,,4 | D,8 z8 | x16 | x16 | (G,2 F,2) (E,2 D,2) A,4 A,,4 | %8
 D,8 | G,,8 D,8 |] %10

